src/assets/img/appbar_mainTag_pura.svg

<svg width="77" height="31" viewBox="0 0 77 31" fill="none" xmlns="http://www.w3.org/2000/svg">
<rect x="1" y="1" width="75" height="29" rx="4" fill="#55576F"/>
<path d="M13.8222 20H15.3456V17.1289H16.9862C18.9433 17.1289 19.9921 15.9512 19.998 14.3281C19.9921 12.6992 18.955 11.5156 17.0097 11.5156H13.8222V20ZM15.3456 15.875V12.793H16.7753C17.9237 12.793 18.4394 13.4199 18.4394 14.3281C18.4394 15.2246 17.9237 15.8691 16.7753 15.875H15.3456ZM26.2239 11.5156V16.9297C26.2239 18.002 25.4856 18.7637 24.3137 18.7695C23.1419 18.7637 22.3977 18.002 22.3919 16.9297V11.5156H20.8684V17.0586C20.8743 18.8809 22.2337 20.1289 24.3137 20.1289C26.3821 20.1289 27.7532 18.8809 27.7591 17.0586V11.5156H26.2239ZM28.9694 20H30.4928V16.8945H32.0866L33.7506 20H35.4498L33.6159 16.6367C34.612 16.2324 35.1393 15.377 35.1452 14.2227C35.1393 12.6055 34.1022 11.5156 32.1569 11.5156H28.9694V20ZM30.4928 15.6172V12.793H31.9225C33.0709 12.793 33.5866 13.3203 33.5866 14.2227C33.5866 15.1309 33.0709 15.623 31.9225 15.6172H30.4928ZM37.1758 20L37.8789 17.9023H41.0723L41.7812 20H43.4102L40.4102 11.5156H38.5352L35.5469 20H37.1758ZM38.2891 16.6719L39.4375 13.25H39.5078L40.6621 16.6719H38.2891ZM45.3353 11.5156H43.5775L46.2259 15.7578L43.5423 20H45.3002L47.1986 16.9062H47.2689L49.1673 20H50.9369L48.2767 15.7578L50.89 11.5156H49.1556L47.2689 14.6328H47.1986L45.3353 11.5156ZM51.6316 20H57.1745V18.7109H53.155V16.3906H56.8581V15.1133H53.155V12.793H57.1511V11.5156H51.6316V20ZM58.2559 20H63.5294V18.7109H59.7794V11.5156H58.2559V20Z" fill="white"/>
<rect x="1" y="1" width="75" height="29" rx="4" stroke="white" stroke-width="0.5"/>
</svg>

<svg width="77" height="31" fill="none" xmlns="http://www.w3.org/2000/svg"><rect x="1" y="1" width="75" height="29" rx="4" fill="#55576F"/><path d="M13.8 20h1.5v-2.9H17c2 0 3-1.1 3-2.8 0-1.6-1-2.8-3-2.8h-3.2V20zm1.5-4.1v-3.1h1.5c1.2 0 1.6.6 1.6 1.5s-.4 1.6-1.6 1.6h-1.5zm10.9-4.4V17c0 1-.7 1.8-1.9 1.8s-1.9-.8-1.9-1.8v-5.5h-1.5V17c0 1.9 1.3 3.1 3.4 3.1 2.1 0 3.5-1.2 3.5-3.1v-5.5h-1.6zM29 20h1.5v-3.1H32l1.8 3.1h1.6l-1.8-3.4c1-.4 1.5-1.2 1.5-2.4 0-1.6-1-2.7-2.9-2.7H29V20zm1.5-4.4v-2.8H32c1 0 1.6.5 1.6 1.4 0 .9-.6 1.4-1.6 1.4h-1.5zm6.7 4.4l.7-2.1H41l.8 2.1h1.6l-3-8.5h-1.9l-3 8.5h1.7zm1.1-3.3l1.1-3.4h.1l1.2 3.4h-2.4zm7-5.2h-1.7l2.6 4.3-2.7 4.2h1.8l1.9-3h.1l1.9 3H51l-2.7-4.2 2.6-4.3h-1.7l-1.9 3.1h-.1l-1.9-3.1zm6.3 8.5h5.6v-1.3h-4v-2.3h3.7v-1.3h-3.7v-2.3h4v-1.3h-5.6V20zm6.7 0h5.2v-1.3h-3.7v-7.2h-1.5V20z" fill="#fff"/><rect x="1" y="1" width="75" height="29" rx="4" stroke="#fff" stroke-width=".5"/></svg>
